X: 3674
T: Billy Brocker's
R: reel
M: 4/4
K: Dmajor
dB|AFFF AFdB|ADFA G3B|AFFF ABdf|efge fedB|
AFFF AFdB|ADFA GABd|AFFF ABdf|efge fdef||
d3e f2af|eAAA eAcA|dAde faaf|gfeg fdef|
dcde fbaf|eAAA eAce|f4 g2fg|abag fedB||
AFFF AFdB|ADFA G3B|AFFF ABdf|efge fedB|
AFFF AFdB|ADFA GABd|AFFF ABdf|efgb afef||
d3e f2af|eAAA eAcA|dAde faaf|gfeg fdef|
dcde fbaf|eAAA eAce|ff/f/ff g2fg|abag fedB||
AFFF AFdB|ADFA GABd|AFFF ABdf|efge fedB|
AFFF AFdB|ADFA G3B|AFFF ABdf|efgb afef||
d3e f2af|eAAA eAcA|dAde faaf|gfeg fdef|
dcde faaf|eAAA eAce|f4 g2fg|abag fedB|A4||

